X:1
T:Polska i tre repriser efter John-Erik Mattson
M:3/4
L:1/8
Q:150
S:John-Erik Mattsson, Digerberget
R:Sydjmtsk slngpolska
O:sdra Jmtland
A:Rtansbyn
N:John-Erik:"Den hr var mycket populr och spelades verallt p tjugotalet"
Z:Lennart Sohlman <l.y.sohlman@mailbox.calypso.net> scand 2001-9-11
K:D
|: D>F A>d f>a | (3agf e z (E2 | A,>)C E>A ce | (3gec (d>A) (3F(AF) |
| D>F A>d f>a | (3gbg e z (E2 | A,>)C E>A ce | (3gec d4 :|
|: D>(F A>)(d f)a | A>(c e>)(f g)b | (3a(fa) (3g(eg) (3f(df) | (3e(ce) d>A (3F(AF) |
| D>(F A>)(d f)a | A>(c e>)(f g)b | (3a(fa) (3g(eg) (3f(df) | (3ece d4 :|
|: [K:A] {f}e2 (^de) fe | (ec') ae c2 | {d}cB/B/ Bg Bg | {ga}ge/d/ ca ca |
| {f}e2 (^de)fe | (ec') ae c2 | {d}cB/B/ Bg Bg | (ga) a4 :|
